Numix/64/mimetypes/virtualbox-ova.svg

<?xml version="1.0" encoding="UTF-8" standalone="no"?>
<svg
   xmlns:dc="http://purl.org/dc/elements/1.1/"
   xmlns:cc="http://creativecommons.org/ns#"
   xmlns:rdf="http://www.w3.org/1999/02/22-rdf-syntax-ns#"
   xmlns:svg="http://www.w3.org/2000/svg"
   xmlns="http://www.w3.org/2000/svg"
   xmlns:sodipodi="http://sodipodi.sourceforge.net/DTD/sodipodi-0.dtd"
   xmlns:inkscape="http://www.inkscape.org/namespaces/inkscape"
   width="64px"
   height="64px"
   viewBox="0 0 64 64"
   version="1.1"
   id="svg2"
   inkscape:version="0.91 r13725"
   sodipodi:docname="application-vbox-3_P.svg">
  <metadata
     id="metadata15">
    <rdf:RDF>
      <cc:Work
         rdf:about="">
        <dc:format>image/svg+xml</dc:format>
        <dc:type
           rdf:resource="http://purl.org/dc/dcmitype/StillImage" />
        <dc:title></dc:title>
      </cc:Work>
    </rdf:RDF>
  </metadata>
  <defs
     id="defs13">
    <clipPath
       id="clipPath-419917221">
      <g
         transform="translate(0,-1004.3622)"
         id="g17">
        <path
           inkscape:connector-curvature="0"
           d="m -24,13 c 0,1.105 -0.672,2 -1.5,2 -0.828,0 -1.5,-0.895 -1.5,-2 0,-1.105 0.672,-2 1.5,-2 0.828,0 1.5,0.895 1.5,2 z"
           transform="matrix(15.333333,0,0,11.5,414.99999,878.8622)"
           style="fill:#1890d0"
           id="path19" />
      </g>
    </clipPath>
    <clipPath
       id="clipPath-412789426">
      <g
         transform="translate(0,-1004.3622)"
         id="g12">
        <path
           inkscape:connector-curvature="0"
           d="m -24,13 c 0,1.105 -0.672,2 -1.5,2 -0.828,0 -1.5,-0.895 -1.5,-2 0,-1.105 0.672,-2 1.5,-2 0.828,0 1.5,0.895 1.5,2 z"
           transform="matrix(15.333333,0,0,11.5,414.99999,878.8622)"
           style="fill:#1890d0"
           id="path14" />
      </g>
    </clipPath>
    <clipPath
       id="clipPath4213">
      <g
         transform="translate(0,-1004.3622)"
         id="g4215">
        <path
           inkscape:connector-curvature="0"
           d="m -24,13 c 0,1.105 -0.672,2 -1.5,2 -0.828,0 -1.5,-0.895 -1.5,-2 0,-1.105 0.672,-2 1.5,-2 0.828,0 1.5,0.895 1.5,2 z"
           transform="matrix(15.333333,0,0,11.5,414.99999,878.8622)"
           style="fill:#1890d0"
           id="path4217" />
      </g>
    </clipPath>
    <clipPath
       id="clipPath-419917221-6">
      <g
         transform="translate(0,-1004.3622)"
         id="g17-4">
        <path
           inkscape:connector-curvature="0"
           d="m -24,13 c 0,1.105 -0.672,2 -1.5,2 -0.828,0 -1.5,-0.895 -1.5,-2 0,-1.105 0.672,-2 1.5,-2 0.828,0 1.5,0.895 1.5,2 z"
           transform="matrix(15.333333,0,0,11.5,414.99999,878.8622)"
           style="fill:#1890d0"
           id="path19-0" />
      </g>
    </clipPath>
    <clipPath
       id="clipPath-412789426-7">
      <g
         transform="translate(0,-1004.3622)"
         id="g12-2">
        <path
           inkscape:connector-curvature="0"
           d="m -24,13 c 0,1.105 -0.672,2 -1.5,2 -0.828,0 -1.5,-0.895 -1.5,-2 0,-1.105 0.672,-2 1.5,-2 0.828,0 1.5,0.895 1.5,2 z"
           transform="matrix(15.333333,0,0,11.5,414.99999,878.8622)"
           style="fill:#1890d0"
           id="path14-8" />
      </g>
    </clipPath>
    <clipPath
       id="clipPath4251">
      <g
         transform="translate(0,-1004.3622)"
         id="g4253">
        <path
           inkscape:connector-curvature="0"
           d="m -24,13 c 0,1.105 -0.672,2 -1.5,2 -0.828,0 -1.5,-0.895 -1.5,-2 0,-1.105 0.672,-2 1.5,-2 0.828,0 1.5,0.895 1.5,2 z"
           transform="matrix(15.333333,0,0,11.5,414.99999,878.8622)"
           style="fill:#1890d0"
           id="path4255" />
      </g>
    </clipPath>
  </defs>
  <sodipodi:namedview
     pagecolor="#ffffff"
     bordercolor="#666666"
     borderopacity="1"
     objecttolerance="10"
     gridtolerance="10"
     guidetolerance="10"
     inkscape:pageopacity="0"
     inkscape:pageshadow="2"
     inkscape:window-width="1920"
     inkscape:window-height="1013"
     id="namedview11"
     showgrid="false"
     inkscape:zoom="1"
     inkscape:cx="38.566451"
     inkscape:cy="-5.0037931"
     inkscape:window-x="0"
     inkscape:window-y="27"
     inkscape:window-maximized="1"
     inkscape:current-layer="svg2">
    <inkscape:grid
       type="xygrid"
       id="grid4157" />
  </sodipodi:namedview>
  <path
     inkscape:connector-curvature="0"
     id="path5"
     d="M 10.671875,0 C 9.296875,0 8,1.355469 8,2.789062 L 8,61.210938 C 8,62.566406 9.375,64 10.671875,64 l 42.65625,0 C 54.625,64 56,62.566406 56,61.210938 L 56,18 38,0 Z m 0,0"
     style="fill:#a60ed7;fill-opacity:1;fill-rule:nonzero;stroke:none" />
  <path
     inkscape:connector-curvature="0"
     id="path7"
     d="m 42,18 14,14 0,-14 z m 0,0"
     style="fill:#000000;fill-opacity:0.19607801;fill-rule:nonzero;stroke:none" />
  <path
     inkscape:connector-curvature="0"
     id="path9"
     d="M 38,0 55.984375,18 40.757812,18 C 39.410156,18 38,16.574219 38,15.226562 Z m 0,0"
     style="fill:#ffffff;fill-opacity:0.39215698;fill-rule:nonzero;stroke:none" />
  <path
     inkscape:connector-curvature="0"
     id="path13"
     d="M 8,48 8,61.33594 C 8,62.63281 9.375,64 10.664062,64 l 42.671876,0 C 54.625,64 56,62.63281 56,61.33594 L 56,48 Z m 0,0"
     style="fill:#000000;fill-opacity:0.19607801;fill-rule:nonzero;stroke:none" />
  <path
     inkscape:connector-curvature="0"
     id="path4159"
     style="font-style:normal;font-variant:normal;font-weight:bold;font-stretch:normal;font-size:medium;line-height:125%;font-family:'Ubuntu Mono';-inkscape-font-specification:'Ubuntu Mono, Bold';text-align:start;letter-spacing:0px;word-spacing:0px;writing-mode:lr-tb;text-anchor:start;fill:#ffffff;fill-opacity:1;stroke:none;stroke-width:1px;stroke-linecap:butt;stroke-linejoin:miter;stroke-opacity:1"
     d="m 19.522422,56.500003 q 0,0.766254 0.06054,1.447369 0.08072,0.664087 0.282511,1.157895 0.221974,0.493808 0.605382,0.783281 0.383408,0.289474 1.029147,0.289474 0.625561,0 1.008969,-0.289474 0.403587,-0.289473 0.605382,-0.783281 0.221973,-0.510837 0.282511,-1.174923 0.08072,-0.664087 0.08072,-1.430341 0,-0.766254 -0.08072,-1.43034 -0.06054,-0.681115 -0.282511,-1.174924 -0.201795,-0.493807 -0.585202,-0.783281 -0.383409,-0.289474 -1.029149,-0.289474 -0.645739,0 -1.029147,0.289474 -0.383408,0.289474 -0.605382,0.80031 -0.201793,0.493808 -0.282511,1.157895 -0.06054,0.664086 -0.06054,1.43034 z m -2.522422,0 q 0,-2.724458 1.190583,-4.103716 1.190584,-1.396284 3.309417,-1.396284 2.199553,0 3.349776,1.396284 Q 26,53.775545 26,56.500003 q 0,2.724459 -1.170404,4.120744 -1.170403,1.379256 -3.309416,1.379256 -2.199553,0 -3.369956,-1.379256 Q 17,59.224462 17,56.500003 Z" />
  <path
     inkscape:connector-curvature="0"
     id="path4161"
     style="font-style:normal;font-variant:normal;font-weight:bold;font-stretch:normal;font-size:medium;line-height:125%;font-family:'Ubuntu Mono';-inkscape-font-specification:'Ubuntu Mono, Bold';text-align:start;letter-spacing:0px;word-spacing:0px;writing-mode:lr-tb;text-anchor:start;fill:#ffffff;fill-opacity:1;stroke:none;stroke-width:1px;stroke-linecap:butt;stroke-linejoin:miter;stroke-opacity:1"
     d="M 30.277896,62 Q 29.823159,60.773829 29.31158,59.227787 28.800001,57.681744 28.345264,56.153473 27.890528,54.607432 27.530528,53.239095 27.170528,51.870759 27.000001,51 l 2.463158,0 q 0.113683,0.852989 0.341052,1.990306 0.227369,1.119549 0.492632,2.32795 0.284211,1.190629 0.587369,2.363488 0.322105,1.155089 0.625263,2.079161 0.303158,-0.906301 0.606316,-2.061389 0.303157,-1.172861 0.568421,-2.36349 0.265262,-1.208401 0.492631,-2.34572 Q 33.404211,51.852989 33.55579,51 l 2.444211,0 q -0.227369,1.066235 -0.568421,2.381259 -0.322106,1.315025 -0.757895,2.772214 -0.416842,1.439419 -0.928421,2.949919 Q 33.233685,60.596122 32.684212,62 l -2.406316,0 z" />
  <path
     inkscape:connector-curvature="0"
     id="path4163"
     style="font-style:normal;font-variant:normal;font-weight:bold;font-stretch:normal;font-size:medium;line-height:125%;font-family:'Ubuntu Mono';-inkscape-font-specification:'Ubuntu Mono, Bold';text-align:start;letter-spacing:0px;word-spacing:0px;writing-mode:lr-tb;text-anchor:start;fill:#ffffff;fill-opacity:1;stroke:none;stroke-width:1px;stroke-linecap:butt;stroke-linejoin:miter;stroke-opacity:1"
     d="m 43.535271,62 -0.541495,-2.541196 -3.080912,0 L 39.390042,62 37.000001,62 Q 37.821577,58.74798 38.661827,56.08239 39.502076,53.399031 40.286308,51 l 2.502075,0 q 0.821577,2.416801 1.62448,5.135702 Q 45.234441,58.836833 46.000001,62 l -2.46473,0 z m -2.053942,-8.867529 q -0.186722,0.621971 -0.354773,1.19063 -0.149377,0.550888 -0.298754,1.101777 -0.130706,0.533119 -0.261411,1.084007 -0.112032,0.550889 -0.224066,1.137318 l 2.259336,0 q -0.112034,-0.586429 -0.224066,-1.137318 -0.112034,-0.550888 -0.261411,-1.084007 -0.130706,-0.550889 -0.298755,-1.101777 -0.149378,-0.568659 -0.3361,-1.19063 z" />
  <path
     style="fill:#ffffff;fill-opacity:1;fill-rule:nonzero;stroke:none"
     d="m 31.92087,18.820577 c -1.532414,5.855082 -3.122749,11.696691 -4.682765,17.540997 -2.437224,-6.733761 -0.03617,-0.03167 -2.436205,-6.733103 l -4.801901,0 0,2.401214 3.600819,0 3.600817,10.773937 0.457312,0.01191 c 1.224011,-5.667135 2.878834,-11.238649 4.378848,-16.832759 l 0,-0.02183 c 0.927611,3.37586 1.837683,6.757814 2.737692,10.138462 0.843608,-3.179532 1.699639,-6.359839 2.548046,-9.539373 1.87562,4.283272 -0.03581,-0.01904 1.876998,4.28338 l 4.79947,0 -0.0023,-2.413318 -3.600818,0 c -3.07083,-9.147141 -1.8e-5,4.34e-4 -3.075647,-9.352612 -0.848409,3.156787 -1.702071,6.312184 -2.550478,9.464184 -0.858009,-3.245374 -1.734242,-6.490337 -2.625851,-9.726135 l 0.0025,0.0025 z"
     id="path55"
     inkscape:connector-curvature="0"
     sodipodi:nodetypes="ccccccccccccccccccccc" />
</svg>

<svg xmlns="http://www.w3.org/2000/svg" viewBox="0 0 64 64">
 <defs>
  
 </defs>
 <path d="m 10.672 0 c -1.375 0 -2.672 1.355 -2.672 2.789 l 0 58.42 c 0 1.355 1.375 2.789 2.672 2.789 l 42.656 0 c 1.297 0 2.672 -1.434 2.672 -2.789 l 0 -43.21 -18 -18 m -27.328 0" style="fill:#a60ed7;fill-opacity:1;stroke:none;fill-rule:nonzero"/>
 <path d="m 42 18 14 14 0 -14 z m 0 0" style="fill:#000;fill-opacity:0.196;stroke:none;fill-rule:nonzero"/>
 <path d="m 38 0 17.984 18 -15.227 0 c -1.348 0 -2.758 -1.426 -2.758 -2.773 m 0 -15.227" style="fill:#fff;fill-opacity:0.392;stroke:none;fill-rule:nonzero"/>
 <path d="m 8 48 0 13.336 c 0 1.297 1.375 2.664 2.664 2.664 l 42.672 0 c 1.289 0 2.664 -1.367 2.664 -2.664 l 0 -13.336 m -48 0" style="fill:#000;fill-opacity:0.196;stroke:none;fill-rule:nonzero"/>
 <path d="m 19.522 56.5 q 0 0.766 0.061 1.447 0.081 0.664 0.283 1.158 0.222 0.494 0.605 0.783 0.383 0.289 1.029 0.289 0.626 0 1.01 -0.289 0.404 -0.289 0.605 -0.783 0.222 -0.511 0.283 -1.175 0.081 -0.664 0.081 -1.43 0 -0.766 -0.081 -1.43 -0.061 -0.681 -0.283 -1.175 -0.202 -0.494 -0.585 -0.783 -0.383 -0.289 -1.029 -0.289 -0.646 0 -1.029 0.289 -0.383 0.289 -0.605 0.8 -0.202 0.494 -0.283 1.158 -0.061 0.664 -0.061 1.43 z m -2.522 0 q 0 -2.724 1.191 -4.104 1.191 -1.396 3.309 -1.396 2.2 0 3.35 1.396 q 1.15 1.379 1.15 4.104 q 0 2.724 -1.17 4.121 -1.17 1.379 -3.309 1.379 -2.2 0 -3.37 -1.379 q -1.15 -1.396 -1.15 -4.121" style="fill:#fff;fill-opacity:1;stroke:none"/>
 <path d="m 30.28 62 q -0.455 -1.226 -0.966 -2.772 -0.512 -1.546 -0.966 -3.074 -0.455 -1.546 -0.815 -2.914 -0.36 -1.368 -0.531 -2.239 l 2.463 0 q 0.114 0.853 0.341 1.99 0.227 1.12 0.493 2.328 0.284 1.191 0.587 2.363 0.322 1.155 0.625 2.079 0.303 -0.906 0.606 -2.061 0.303 -1.173 0.568 -2.363 0.265 -1.208 0.493 -2.346 q 0.227 -1.137 0.379 -1.99 l 2.444 0 q -0.227 1.066 -0.568 2.381 -0.322 1.315 -0.758 2.772 -0.417 1.439 -0.928 2.95 q -0.512 1.493 -1.061 2.897 l -2.406 0 z" style="fill:#fff;fill-opacity:1;stroke:none"/>
 <path d="m 43.535 62 -0.541 -2.541 -3.081 0 l -0.523 2.541 -2.39 0 q 0.822 -3.252 1.662 -5.918 0.84 -2.683 1.624 -5.082 l 2.502 0 q 0.822 2.417 1.624 5.136 q 0.822 2.701 1.587 5.864 l -2.465 0 z m -2.054 -8.868 q -0.187 0.622 -0.355 1.191 -0.149 0.551 -0.299 1.102 -0.131 0.533 -0.261 1.084 -0.112 0.551 -0.224 1.137 l 2.259 0 q -0.112 -0.586 -0.224 -1.137 -0.112 -0.551 -0.261 -1.084 -0.131 -0.551 -0.299 -1.102 -0.149 -0.569 -0.336 -1.191 z" style="fill:#fff;fill-opacity:1;stroke:none"/>
 <path d="m 31.921 18.821 c -1.532 5.855 -3.123 11.697 -4.683 17.541 -2.437 -6.734 -0.036 -0.032 -2.436 -6.733 l -4.802 0 0 2.401 3.601 0 3.601 10.774 0.457 0.012 c 1.224 -5.667 2.879 -11.239 4.379 -16.833 l 0 -0.022 c 0.928 3.376 1.838 6.758 2.738 10.138 0.844 -3.18 1.7 -6.36 2.548 -9.539 1.876 4.283 -0.036 -0.019 1.877 4.283 l 4.799 0 -0.002 -2.413 -3.601 0 c -3.071 -9.147 0 0 -3.076 -9.353 -0.848 3.157 -1.702 6.312 -2.55 9.464 -0.858 -3.245 -1.734 -6.49 -2.626 -9.726 l 0.002 0.003 z" style="fill:#fff;fill-opacity:1;stroke:none;fill-rule:nonzero"/>
</svg>
